data/cards/self-care/swimming.svg

<svg xmlns="http://www.w3.org/2000/svg" width="512" height="512" fill="none"><g clip-path="url(#a)"><path fill="#FFBE9D" d="M140.299 273.91c-31.219-31.048-64.363-62.658-78.733-126.339-3.725-16.506 6.637-32.909 23.144-36.633 16.51-3.726 32.909 6.638 36.633 23.144 10.457 46.336 33.719 68.078 62.173 96.38 11.998 11.934 12.049 31.335.115 43.333-11.923 11.988-31.326 12.058-43.332.115Z"/><path fill="#FFD3BD" d="M210.921 133.008c24.249 0 43.907-19.657 43.907-43.907 0-24.249-19.658-43.907-43.907-43.907-24.249 0-43.907 19.658-43.907 43.907 0 24.25 19.658 43.907 43.907 43.907Z"/><path fill="#FFBE9D" d="M435.31 357.398c24.249 0 43.907-19.658 43.907-43.907 0-24.249-19.658-43.907-43.907-43.907-24.249 0-43.907 19.658-43.907 43.907 0 24.249 19.658 43.907 43.907 43.907Z"/><path fill="#FFD3BD" d="M259.726 415.441c46.31-46.31 50.103-117.599 8.473-159.23-41.63-41.63-112.92-37.836-159.23 8.473-46.31 46.31-35.418 102.913 6.213 144.544 41.631 41.631 98.234 52.523 144.544 6.213Z"/><path fill="#FFD3BD" d="M434.414 312.664c55.859-55.859 51.286-150.997-10.213-212.496-61.5-61.5-156.638-66.072-212.496-10.214-55.859 55.859-51.286 150.997 10.213 212.496 61.499 61.5 156.637 66.072 212.496 10.214Z"/><path fill="#FFBE9D" d="M277.583 339.696C159.513 215.755 281.461 81.16 361.35 60.099c-52.475-18.708-110.61-9.17-149.607 29.826-55.867 55.867-51.294 151.019 10.215 212.528 16.574 16.574 35.593 29.006 55.625 37.243Z"/><path fill="#E7889D" d="M253.682 189.778c10.402-10.402 8.246-29.424-4.816-42.487-13.062-13.062-32.084-15.218-42.487-4.816-10.402 10.403-8.246 29.425 4.817 42.487 13.062 13.062 32.084 15.218 42.486 4.816Zm128.192 128.218c10.402-10.402 8.246-29.424-4.817-42.487-13.062-13.063-32.084-15.219-42.487-4.817-10.402 10.403-8.246 29.425 4.817 42.487 13.063 13.063 32.085 15.219 42.487 4.817Z"/><path fill="#4E5660" d="M261.993 169.271a7.5 7.5 0 0 1-5.304-12.803l9.67-9.67a7.5 7.5 0 0 1 10.607 10.607l-9.67 9.67a7.477 7.477 0 0 1-5.303 2.196ZM362.64 269.919a7.5 7.5 0 0 1-5.304-12.803l9.67-9.67a7.5 7.5 0 0 1 10.607 10.607l-9.67 9.67a7.483 7.483 0 0 1-5.303 2.196Zm-38.482-37.286a32.37 32.37 0 0 1-22.901-9.479 32.386 32.386 0 0 1-9.402-25.128 7.5 7.5 0 1 1 14.965 1.027 17.389 17.389 0 0 0 5.045 13.494 17.417 17.417 0 0 0 13.494 5.045c4.125-.264 7.713 2.836 7.996 6.969a7.5 7.5 0 0 1-6.969 7.996 33.25 33.25 0 0 1-2.228.076Zm136.974 41.62c24.995-54.822 12.119-125.133-36.86-174.113-48.98-48.98-119.292-61.855-174.114-36.86 35.802 39.565 104.464 82.133 137.467 73.506-8.626 33.003 33.942 101.665 73.507 137.467Z"/><path fill="#383C43" d="M292.189 100.269c22.36-20.182 47.333-34.417 69.167-40.172-37.163-13.25-77.165-12.334-111.198 3.183 11.411 12.61 26.162 25.523 42.031 36.989Z"/><path fill="#A2DDFD" d="M512 314.462c0-16.45-10.077-31.308-25.456-37.146-25.83-9.806-56.141-4.307-76.944 16.496-28.277 28.277-74.123 28.277-102.4 0s-74.123-28.277-102.4 0-74.123 28.277-102.4 0c-20.803-20.803-51.115-26.301-76.944-16.496C10.077 283.154 0 298.013 0 314.462v107.139c0 24.966 20.239 45.204 45.204 45.204h421.592c24.966 0 45.204-20.238 45.204-45.204V314.462Z"/><path fill="#7ACDF9" d="M166.758 313.807c-22.63 4.161-46.857-2.495-64.357-19.996-20.803-20.803-51.115-26.301-76.944-16.496C10.077 283.154 0 298.013 0 314.462v107.139c0 24.966 20.238 45.204 45.204 45.204h153.367c-30.613-26.562-41.098-103.296-31.813-152.998Z"/><path fill="#A2DDFD" d="M114.793 408.766c-13.47 0-26.94-5.128-37.195-15.382a7.5 7.5 0 0 1 10.607-10.607c14.66 14.662 38.516 14.662 53.176 0a7.5 7.5 0 0 1 10.607 10.607c-10.255 10.254-23.725 15.382-37.195 15.382Z"/><path fill="#7ACDF9" d="M271.217 392.471c-14.051 0-27.26-5.472-37.195-15.406a7.5 7.5 0 0 1 10.607-10.607c7.102 7.103 16.544 11.014 26.588 11.014 10.043 0 19.485-3.911 26.587-11.013a7.5 7.5 0 0 1 10.606-.001 7.5 7.5 0 0 1 .001 10.607c-9.934 9.934-23.144 15.406-37.194 15.406Zm142.04 22.925c-14.05 0-27.26-5.472-37.194-15.407a7.498 7.498 0 0 1 .001-10.606 7.5 7.5 0 0 1 10.606.001c7.102 7.102 16.544 11.013 26.587 11.013 10.044 0 19.486-3.911 26.588-11.014a7.5 7.5 0 0 1 10.607 10.607c-9.935 9.934-23.144 15.406-37.195 15.406Z"/></g><defs><clipPath id="a"><path fill="#fff" d="M0 0h512v512H0z"/></clipPath></defs></svg>

<svg width="512" height="512" viewBox="0 0 512 512" fill="none" xmlns="http://www.w3.org/2000/svg">
<g clip-path="url(#clip0)">
<path d="M140.299 273.91C109.08 242.862 75.936 211.252 61.566 147.571C57.841 131.065 68.203 114.662 84.71 110.938C101.22 107.212 117.619 117.576 121.343 134.082C131.8 180.418 155.062 202.16 183.516 230.462C195.514 242.396 195.565 261.797 183.631 273.795C171.708 285.783 152.305 285.853 140.299 273.91Z" fill="#FFBE9D"/>
<path d="M210.921 133.008C235.17 133.008 254.828 113.351 254.828 89.1013C254.828 64.8522 235.17 45.1943 210.921 45.1943C186.672 45.1943 167.014 64.8522 167.014 89.1013C167.014 113.351 186.672 133.008 210.921 133.008Z" fill="#FFD3BD"/>
<path d="M435.31 357.398C459.559 357.398 479.217 337.74 479.217 313.491C479.217 289.242 459.559 269.584 435.31 269.584C411.061 269.584 391.403 289.242 391.403 313.491C391.403 337.74 411.061 357.398 435.31 357.398Z" fill="#FFBE9D"/>
<path d="M259.726 415.441C306.036 369.131 309.829 297.842 268.199 256.211C226.569 214.581 155.279 218.375 108.969 264.684C62.659 310.994 73.551 367.597 115.182 409.228C156.813 450.859 213.416 461.751 259.726 415.441Z" fill="#FFD3BD"/>
<path d="M434.414 312.664C490.273 256.805 485.7 161.667 424.201 100.168C362.701 38.6683 267.563 34.0956 211.705 89.9544C155.846 145.813 160.419 240.951 221.918 302.45C283.417 363.95 378.555 368.522 434.414 312.664Z" fill="#FFD3BD"/>
<path d="M277.583 339.696C159.513 215.755 281.461 81.1601 361.35 60.0991C308.875 41.3911 250.74 50.9291 211.743 89.9251C155.876 145.792 160.449 240.944 221.958 302.453C238.532 319.027 257.551 331.459 277.583 339.696Z" fill="#FFBE9D"/>
<path d="M253.682 189.778C264.084 179.376 261.928 160.354 248.866 147.291C235.804 134.229 216.782 132.073 206.379 142.475C195.977 152.878 198.133 171.9 211.196 184.962C224.258 198.024 243.28 200.18 253.682 189.778Z" fill="#E7889D"/>
<path d="M381.874 317.996C392.276 307.594 390.12 288.572 377.057 275.509C363.995 262.446 344.973 260.29 334.57 270.692C324.168 281.095 326.324 300.117 339.387 313.179C352.45 326.242 371.472 328.398 381.874 317.996Z" fill="#E7889D"/>
<path d="M261.993 169.271C260.074 169.271 258.154 168.539 256.689 167.075C253.76 164.145 253.76 159.397 256.689 156.468L266.359 146.798C269.289 143.87 274.037 143.87 276.966 146.798C279.895 149.728 279.895 154.476 276.966 157.405L267.296 167.075C265.832 168.539 263.912 169.271 261.993 169.271Z" fill="#4E5660"/>
<path d="M362.64 269.919C360.721 269.919 358.801 269.187 357.336 267.723C354.407 264.793 354.407 260.045 357.336 257.116L367.006 247.446C369.936 244.518 374.684 244.518 377.613 247.446C380.542 250.376 380.542 255.124 377.613 258.053L367.943 267.723C366.478 269.186 364.559 269.919 362.64 269.919Z" fill="#4E5660"/>
<path d="M324.158 232.633C315.591 232.634 307.347 229.245 301.257 223.154C294.64 216.537 291.213 207.378 291.855 198.026C292.139 193.894 295.721 190.779 299.851 191.057C303.984 191.341 307.103 194.92 306.82 199.053C306.475 204.078 308.314 208.996 311.865 212.547C315.415 216.099 320.343 217.931 325.359 217.592C329.484 217.328 333.072 220.428 333.355 224.561C333.638 228.694 330.519 232.273 326.386 232.557C325.642 232.607 324.898 232.633 324.158 232.633Z" fill="#4E5660"/>
<path d="M461.132 274.253C486.127 219.431 473.251 149.12 424.272 100.14C375.292 51.1607 304.98 38.2847 250.158 63.2797C285.96 102.845 354.622 145.413 387.625 136.786C378.999 169.789 421.567 238.451 461.132 274.253Z" fill="#4E5660"/>
<path d="M292.189 100.269C314.549 80.0866 339.522 65.8516 361.356 60.0966C324.193 46.8466 284.191 47.7626 250.158 63.2796C261.569 75.8896 276.32 88.8026 292.189 100.269Z" fill="#383C43"/>
<path d="M512 314.462C512 298.012 501.923 283.154 486.544 277.316C460.714 267.51 430.403 273.009 409.6 293.812C381.323 322.089 335.477 322.089 307.2 293.812C278.923 265.535 233.077 265.535 204.8 293.812C176.523 322.089 130.677 322.089 102.4 293.812C81.597 273.009 51.285 267.511 25.456 277.316C10.077 283.154 0 298.013 0 314.462V421.601C0 446.567 20.239 466.805 45.204 466.805H466.796C491.762 466.805 512 446.567 512 421.601V314.462Z" fill="#A2DDFD"/>
<path d="M166.758 313.807C144.128 317.968 119.901 311.312 102.401 293.811C81.598 273.008 51.286 267.51 25.457 277.315C10.077 283.154 0 298.013 0 314.462V421.601C0 446.567 20.238 466.805 45.204 466.805H198.571C167.958 440.243 157.473 363.509 166.758 313.807Z" fill="#7ACDF9"/>
<path d="M114.793 408.766C101.323 408.766 87.853 403.638 77.598 393.384C74.669 390.454 74.669 385.706 77.598 382.777C80.528 379.849 85.276 379.849 88.205 382.777C102.865 397.439 126.721 397.439 141.381 382.777C144.311 379.849 149.059 379.849 151.988 382.777C154.917 385.707 154.917 390.455 151.988 393.384C141.733 403.638 128.263 408.766 114.793 408.766Z" fill="#A2DDFD"/>
<path d="M271.217 392.471C257.166 392.471 243.957 386.999 234.022 377.065C231.093 374.135 231.093 369.387 234.022 366.458C236.952 363.53 241.7 363.53 244.629 366.458C251.731 373.561 261.173 377.472 271.217 377.472C281.26 377.472 290.702 373.561 297.804 366.459C300.734 363.529 305.483 363.53 308.41 366.458C311.34 369.387 311.34 374.136 308.411 377.065C298.477 386.999 285.267 392.471 271.217 392.471Z" fill="#7ACDF9"/>
<path d="M413.257 415.396C399.207 415.396 385.997 409.924 376.063 399.989C373.134 397.06 373.134 392.311 376.064 389.383C378.993 386.455 383.742 386.454 386.67 389.384C393.772 396.486 403.214 400.397 413.257 400.397C423.301 400.397 432.743 396.486 439.845 389.383C442.775 386.455 447.523 386.455 450.452 389.383C453.381 392.313 453.381 397.061 450.452 399.99C440.517 409.924 427.308 415.396 413.257 415.396Z" fill="#7ACDF9"/>
</g>
<defs>
<clipPath id="clip0">
<rect width="512" height="512" fill="white"/>
</clipPath>
</defs>
</svg>
